X: 17380
T: High Road To Galway, The
R: reel
M: 4/4
K: Gmajor
~G3A GE~E2|cABG AE~E2|cBAc BAGB|1 AGEG ABcA:|2 AGEG ABc2||
cdef g2ag|egdg eA~A2|cdef g2ag|gedB A3B|
cdef g2ag|e2de cde=f|=feed dcdB|cAAG AGFA||

